X: 20643
M: 2/4
L: 1/16
K: F
c2 |\
f2ff f2f2 | f6 e2 | d2dd d2d2 | d6 d2 |\
g2gg g2g2 | g2c2d2e2 | f2ed cBAG | F4 z2 :|
|: AB |\
cdc=B c2f2 | cdc=B c2a2 | gfed c2a2 | gfed c2GA |\
|:\
c4 c4 | c2fd c2BA | c2dc c2de | f4 f4 :|
|: (3(cde) |\
f4 a4 | f2ed c2BA | g4 b4 | a2gf e2dc |\
f4 a4 | f2ed c2BA | c2dc c2de | f4 z2 :|


